X:1815
T:Bourree
Z:abc transcription Simon Wascher
N:please mail errors to: simon.wascher@chello.at
M:2/4
L:1/8
K:Dm
A2 BA|^G3A|d3/2f/2 ed|BG cB|
AF BA|^G3A|G3/2F/2 ED|1EF2G:|2E4||
K:G
|:F3/2G/2 AF|c3/2B/2 AG|ed cB|AG FE|
F3/2G/2 AF|c3/2B/2 AG|e3/2d/2 cB|A4:|


